resources/haticons/SVG/coin-euro.svg

<!-- Generated by IcoMoon.io -->
<svg version="1.1" xmlns="http://www.w3.org/2000/svg" width="24" height="24" viewBox="0 0 24 24">
<title>coin-euro</title>
<path d="M11.25 1.5c-6.213 0-11.25 5.037-11.25 11.25s5.037 11.25 11.25 11.25c6.213 0 11.25-5.037 11.25-11.25s-5.037-11.25-11.25-11.25zM11.25 21.75c-4.971 0-9-4.029-9-9s4.029-9 9-9c4.971 0 9 4.029 9 9s-4.029 9-9 9z"></path>
<path d="M15.722 15.102c-0.358-0.208-0.817-0.087-1.025 0.271-0.404 0.695-1.15 1.127-1.947 1.127h-3c-0.978 0-1.811-0.627-2.121-1.5h3.621c0.414 0 0.75-0.336 0.75-0.75s-0.336-0.75-0.75-0.75h-3.75v-1.5h3.75c0.414 0 0.75-0.336 0.75-0.75s-0.336-0.75-0.75-0.75h-3.621c0.31-0.873 1.143-1.5 2.121-1.5h3c0.797 0 1.543 0.432 1.947 1.127 0.208 0.358 0.667 0.479 1.025 0.271s0.479-0.667 0.271-1.025c-0.672-1.155-1.915-1.873-3.244-1.873h-3c-1.811 0-3.326 1.29-3.675 3h-0.825c-0.414 0-0.75 0.336-0.75 0.75s0.336 0.75 0.75 0.75h0.75v1.5h-0.75c-0.414 0-0.75 0.336-0.75 0.75s0.336 0.75 0.75 0.75h0.825c0.348 1.71 1.864 3 3.675 3h3c1.329 0 2.572-0.718 3.244-1.873 0.208-0.358 0.087-0.817-0.271-1.025z"></path>
</svg>

<svg xmlns="http://www.w3.org/2000/svg" width="24" height="24"><path d="M11.25 1.5C5.037 1.5 0 6.537 0 12.75S5.037 24 11.25 24 22.5 18.963 22.5 12.75 17.463 1.5 11.25 1.5zm0 20.25c-4.971 0-9-4.029-9-9s4.029-9 9-9 9 4.029 9 9-4.029 9-9 9z"/><path d="M15.722 15.102a.75.75 0 0 0-1.025.271A2.263 2.263 0 0 1 12.75 16.5h-3A2.254 2.254 0 0 1 7.629 15h3.621a.75.75 0 0 0 0-1.5H7.5V12h3.75a.75.75 0 0 0 0-1.5H7.629A2.254 2.254 0 0 1 9.75 9h3c.797 0 1.543.432 1.947 1.127a.75.75 0 0 0 1.296-.754A3.77 3.77 0 0 0 12.749 7.5h-3a3.757 3.757 0 0 0-3.675 3h-.825a.75.75 0 0 0 0 1.5h.75v1.5h-.75a.75.75 0 0 0 0 1.5h.825c.348 1.71 1.864 3 3.675 3h3a3.77 3.77 0 0 0 3.244-1.873.75.75 0 0 0-.271-1.025z"/></svg>
